!!!COM: Johannes Brahms
!!!CNT: Deutscher
!!!TXO: Deutsche
!!!OTL: Nachwirkung
!!!OPS: Op.6
!!!ONM: No. 3
!!!LYR: Meissner
!!!ONB: Original key: A-flat Major
!!!ENC: Ayako Kataoka        
!!!EED: Leigh VanHandel
!!!YOR: C.F. Peters, Brahms Lieder fu2r eine Singstimme mit Klavierbegleitung, Band III, ausgabe fu2r tiefere Stimme
!!!ODT: 1852
!!NB: Vocal melody and text only encoded.
**kern	**silbe
*clefG2	*
*k[b-]	*
*M9/8	*
*MM[allegro]	*
!! tempo indication: poco agitato
=3	=3
4r	.
8r	.
4r	.
{8a	{Sie
8a	ist
8g	.
8f	ge-
=4	=4
(4.cc	-gan-
4g)	-gen,
8g	die
8b-	Won-
8a	-nen
8g	ver-
=5	=5
4.dd	-san-
4a}	-ken,}
{8a	{nun
(8a	glu2-
8cc	-hen
8b-)	die
=6	=6
[4.a	Wan-
4a]}	-gen,}
{8a	{nun
(8a	rin-
8cc	-gen
8b-)	die
=7	=7
4.a	Tra2-
4a}	-nen,}
{8a	{es
(8a	schwan-
8g	-ken
8a)	die
=8	=8
4.b-	kran-
4b-}	-ken,}
{8b-	{die
(8a	hei-
8b-	-ssen
8a)	Ge-
=9	=9
[2.g	-dan-
4.g]	|
=10	=10
4.g}	-ken,}
4r	.
{8g	{es
8a	pocht
8g	|
8f	das
=11	=11
(4.cc	Herz
4g)	|
8g	in
8b-	Wu2n-
8a	-schen
8g	und
=12	=12
4.dd	Seh-
4.a}	-nen,}
4r	.
{8a	{es
=13	=13
(4.cc#	pocht
4.dd	|
4.ccn)	das
=14	=12
(4.b-	Herz
4.a	|
4.g)	in
=15	=15
(4.f	Wu2n-
4.e	-schen
4.d)	und
=16	=16
2.c	Seh-
[4.f	|
=17	=17
(2.f]	|
4.e)	|
=18	=18
[4.f	-nen.
8f]}	|}
4r	.
4.r	.
=21	=21
4r	.
8r	.
4r	.
{8a	{So
8a	ha2n-
8g	-gen
8f	noch
=22	=22
[4.cc	lang
8cc]	|
8g	nach
8g	dem
8b-	Schei-
8a	-den
8g	des
=23	=23
4.dd	Ta-
4a}	-ges}
{8a	{in
(8a	sa2u-
8cc	-seln-
8b-)	-der
=24	=24
4.a	Nacht
4a}	luft,}
{8a	{beim
(8a	sa2u-
8cc	-seln-
8b-)	-den
=25	=25
4.a	Win-
4a	-de
8a	die
(8a	Bien-
8g	-lein,
8a)	wie
=26	=26
4.b-	trun-
4b-	-ken
8b-	und
(8a	won-
8b-	-ne-
8a)	ver-
=27	=27
[2.g	sun-
4.g]	|
=28	=28
4.g}	-ken}
4r	.
{8g	{an
8a	zit-
8g	-tern-
8f	-den
=29	=29
4.cc	Blu2-
4g	-ten
8g	der
8b-	duf-
8a	-ti-
8g	-gen
=30	=30
4.dd	Lin-
4.aa}	-de,}
4r	.
{8a	{an
=31	=31
(4.cc#	zit-
4.dd	-tern-
4.ccn)	-den
=32	=32
(4.b-	Blu2-
4.a	-ten
4.g)	der
=33	=33
(4.f	duf-
4.e	-ti-
4.d)	-gen
=34	=34
(2.c	Lin-
[4.f	|
=35	=35
2.f]	|
4.e)	|
=36	=36
[4.f	|
8f]}	-de.}
8r	.
*-	*-
